!!!COM: Robert Franz
!!!CNT: Deutscher
!!!TXO: Deutsche 
!!!OTL: "Liebchen ist da!"
!!!OPS: Op. 5
!!!ONM: No. 2
!!!ONB: Original key: A Major
!!!LYR: J. Schroer
!!!ENC: Brian Bice
!!!YOR: Vocal Album, G. Schirmer, Inc., 1907
!!!ODT: 1846/
!!NB: Vocal melody and text only encoded.
**kern	**silbe
*clefG2	*
*k[f#]	*
*M2/4	*
=1	=1
{8dd	{Blu2m-
16b	-lein
16g	im
(16a	Gar-
16b)	|
8a	-ten,
=2	=2
8dd	schaut
16b	euch
16g	doch
4a}	um,}
=3	=3
{8b	{steht
(24a	nicht
24b	|
24cc)	so
(16b	trau-
16g)	|
8e	-rig,
=4	=4
8b	steht
(24a	nicht
24b	|
24cc)	so
8b}	stumm,}
16r	.
{16e	{denn
=5	=5
8g	wisst,
16f#	was
16g	ich
8b	weiss
16r	.
16e	und
=6	=6
4g}	sah:}
8r	.
{(24f#	{Lieb-
24g	-chen
24a)	ist
=7	=7
4b	da,
8r	.
8a	ist
=8	=8
4d}	da!}
8.r	.
{16d	{Sie
=9	=9
(24a	schu2t-
24a	-tel-
24a)	-ten
8a	sich,
8.r	.
16a	sie
=10	=10
(24cc	sa-
24cc	-hen
24cc)	sich
8cc}	um}
8.r	.
{16cc	{und
=11	=11
(24ee	bal-
24cc	-de
24a)	er-
(24f#	-klingt
24g	es
24a)	im
8b	Krei-
16a	-se
16g	her-
=12	=12
4a}	-um,}
8.r	.
{16a	{und
=13	=13
(8dd	bal-
16b)	|
16g	-de
16a	fern
16b	und
8a	nah:
=14	=14
8dd	Lieb-
16b	-chen
16g	ist
(24a	da,
24cc	|
24b)	ist
8a}	da,}
=15	=15
4r	.
8r	.
{8dd	{ist
=16	=16
4g}	da!}
4r	.
*-	*-
